web-magabank/image/home/icon-union.svg

<svg width="30" height="41" viewBox="0 0 30 41" fill="none" xmlns="http://www.w3.org/2000/svg">
<path fill-rule="evenodd" clip-rule="evenodd" d="M0.664673 14.3366C0.664673 6.41933 7.0829 0.00109863 15.0002 0.00109863C22.9175 0.00109863 29.3357 6.41933 29.3357 14.3366V26.3116C29.3357 34.2289 22.9175 40.6472 15.0002 40.6472C7.0829 40.6472 0.664673 34.2289 0.664673 26.3116V14.3366ZM5.12572 14.1424C5.12572 8.68887 9.54666 4.26792 15.0002 4.26792C20.4537 4.26792 24.8746 8.68887 24.8746 14.1424V26.5058C24.8746 31.9594 20.4537 36.3803 15.0002 36.3803C9.54666 36.3803 5.12572 31.9594 5.12572 26.5058V14.1424ZM15.0002 7.67338C16.2066 7.67338 17.1846 8.65134 17.1846 9.85772V20.6008C17.1846 21.8072 16.2066 22.7852 15.0002 22.7852C13.7938 22.7852 12.8159 21.8072 12.8159 20.6008V9.85772C12.8159 8.65134 13.7938 7.67338 15.0002 7.67338Z" fill="white"/>
</svg>

<svg width="30" height="41" fill="none" xmlns="http://www.w3.org/2000/svg"><path fill-rule="evenodd" clip-rule="evenodd" d="M.665 14.337C.665 6.419 7.083 0 15 0c7.918 0 14.336 6.418 14.336 14.336v11.975c0 7.917-6.418 14.335-14.336 14.335C7.083 40.647.665 34.23.665 26.312V14.337zm4.46-.195c0-5.453 4.422-9.874 9.875-9.874 5.454 0 9.875 4.42 9.875 9.874v12.364c0 5.453-4.421 9.874-9.875 9.874-5.453 0-9.874-4.42-9.874-9.874V14.142zM15 7.673c1.207 0 2.185.978 2.185 2.185V20.6a2.184 2.184 0 01-4.37 0V9.858c0-1.207.979-2.185 2.185-2.185z" fill="#fff"/></svg>
